file/johnson-johnson.svg

<svg clip-rule="evenodd" fill-rule="evenodd" stroke-linejoin="round" stroke-miterlimit="1.41421" viewBox="0 0 560 400" xmlns="http://www.w3.org/2000/svg"><path d="m220.24 1190.05c-9.637 11.57-20.039 25.45-20.039 46.25 0 38.93 22.36 69.38 62.437 69.38 53.202 0 63.603-54.33 63.603-80.17 0-3.01-.168-5.88-.479-8.63 14.111-2.17 28.196-8.08 41.412-16.71l.065.04c.648 25.87 1.388 50.93 1.388 62.31-.376 35.84 2.308 40.1 13.488 40.1 11.945 0 18.508-24.29 29.688-47.42 13.112-28.91 26.99-57.82 35.459-57.82 15.81 0-12.723 106.78 25.434 106.76 26.977 0 67.067-108.3 84.42-108.3 13.489 0-13.89 108.32 16.187 108.3 21.97 0 59.362-110.23 72.085-110.23 13.113 0-13.877 110.23 25.058 110.23 35.083 0 63.604-90.57 73.24-90.57 4.631 0 13.307 12.12 19.494 28.75l-.039.44c-12.166 15.18-19.831 29.72-19.831 40.59 0 13.87 10.804 20.8 21.582 20.8 16.199 0 31.996-17.33 31.996-42.39 0-5.24-.441-20.2-6.329-35.18l.026-.16c24.228-22.46 55.562-42.03 74.524-45.23-10.791 12.34-30.453 23.13-30.453 58.21 0 37.77 28.91 66.68 65.913 66.68 52.034 0 63.214-55.5 63.214-77.08 0-7.86-1.011-14.94-2.814-21.25l-.052.07c17.678-8.32 31.037-20.06 36.017-20.06 10.806 0 6.566 32.76 6.566 66.7 0 25.43-3.868 51.62 15.03 51.62 14.27 0 21.19-28.12 35.46-53.18 13.88-24.68 28.91-58.22 34.69-58.22 7.72 0 4.63 51.66 4.63 61.69 0 12.71-2.32 52.78 23.89 52.78 17.73 0 50.88-49.72 50.88-56.26 0-3.47 0-4.25-2.7-4.25-2.69 0-23.13 33.54-31.23 33.54-11.56 0-4.24-42.79-4.24-74.4 0-13.87 1.92-44.7-21.2-44.7-29.3 0-57.82 82.48-66.69 82.48-8.48-.01 12.33-79.4-24.28-79.4-14.89 0-37.031 20.22-61.194 30.61l.143.05c-8.897-17.45-24.863-26.42-40.323-26.42-11.18 0-19.662 8.49-19.662 17.35 0 11.94 9.636 28.13 31.996 28.13 6.148 0 12.127-1 17.833-2.61l.26.1c2.023 6.55 3.139 13.13 3.126 18.32 0 20.42-13.865 47.01-40.466 47.01-20.817 0-39.324-21.96-39.324-48.95 0-43.95 26.601-51.26 26.601-60.14 0-3.85-3.087-4.61-8.872-4.61-29.726 0-70.594 24.57-101.281 52.9l-.116-.03c-1.058-1.88-2.209-3.7-3.45-5.47-29.688-42.4-18.119-51.64-25.823-51.64-9.637 0-52.813 117.57-69.777 117.57-22.36 0 18.507-113.33-25.045-113.33-34.305 0-53.967 89.03-67.067 89.03-12.71 0 12.711-89.03-24.292-89.03-26.588 0-66.302 106.39-83.642 106.39-14.643 0 13.488-104.84-20.428-104.84-32.385 0-57.819 82.1-65.912 82.1-6.77 0-5.317-25.64-5.045-72.69l.117-.33c26.549-28.53 45.018-67.62 45.031-104.65 0-17.34-8.483-30.84-24.669-30.83-31.607 0-50.115 50.1-50.115 105.22 0 12.03.272 27.37.635 43.13l-.09.19c-14.669 10.79-28.482 16.44-36.393 16.44l-7.134.03.013.02c-7.289-23.76-26.886-34.36-41.062-34.36-11.18 0-20.038 10.4-20.038 19.27 0 13.08 11.608 26.9 48.195 27.71l.078.07c.925 4.43 1.412 8.93 1.453 13.45 0 20.43-15.032 48.2-41.62 48.2-23.138 0-40.479-26.21-40.479-55.14 0-37 24.669-48.57 24.669-51.26 0-1.55-.39-3.09-1.155-3.09-24.474 0-64.395 26.95-102.02 66.07l-.065-.02c-4.254-32.37-9.325-70.62-9.325-115.38 0-64.75 11.958-73.22 11.958-81.7 0-3.86-1.154-5.41-7.717-5.41-14.643 0-109.465 42.78-109.465 137.61 0 72.93 40.129 105.34 65.977 125.01-27.716 41.17-47.469 86.41-47.469 125.92 0 22.35 8.871 44.33 25.434 44.33 26.212 0 76.314-55.52 76.327-169.21 0-14.94-1.933-31.97-4.41-51.22l.013-.06c22.451-23.7 46.523-43.24 67.586-55.92zm2016.41 11.53.05-.14c-4.89-9.44-11.83-16.77-20.17-16.77-3.85 0-7.31 3.85-7.31 6.94 0 6.94 6.56 11.18 16.56 11.18 3.66-.01 7.28-.44 10.87-1.21zm-833.81 86.89c4.83-6.86 9.91-13.58 15.09-20.14l.27-.61c-6.32-33.62-13.07-66.05-13.07-90 0-68.22 29.69-116.79 29.69-127.21 0-6.94 1.17-8.09-3.85-8.09-3.48 0-71.31 28.91-71.31 131.06.01 41.18 19.18 91.58 43.18 114.99zm-5.35 7.74c-9.57-7.28-18.47-19.78-32.05-29.05-11.45-7.85-41.64.66-67.83 5.39l-.05.06c-2.28 15.09-7.47 30.01-12.67 30.01-3.4 0-4.89-11.96-9.14-25.84l-.26-.18c-11.7 2.1-21.61 3.65-27.62 3.65-18.12 0-59.75-8.11-59.75-35.46 0-15.41 17.36-21.59 33.93-21.59 18.88 0 48.95 13.49 56.28 28.15 1.92-26.21-16.98-40.48-16.98-44.72s20.44-11.95 22.37-11.95c8.11 0 15.05 37.01 15.05 63.23 0 1.25-.06 2.5-.11 3.83v.02c20.75-4.15 43.06-8.53 57.54-6.56-13.88-19.66-24.3-46.64-24.3-84.03 0-94.82 94.44-137.61 109.08-137.61 6.56 0 8.11 1.54 8.11 5.41 0 8.48-12.34 16.96-12.34 81.71 0 44.8 5.07 83.08 9.33 115.47 37.63-39.14 77.58-66.13 102.08-66.13.77 0 1.14 1.54 1.14 3.08 0 2.7-24.67 14.27-24.64 51.27-.03 28.91 17.7 55.12 40.83 55.12 26.21 0 41.27-27.76 41.27-48.19 0-4.05-.51-8.73-1.47-13.52l-.02-.02c-36.63-.81-48.24-14.62-48.24-27.72 0-8.87 8.87-19.27 20.42-19.27 13.88 0 33.38 10.59 40.68 34.34l7.12-.04c7.93 0 21.77-5.65 36.46-16.47l.03-.09c-.36-14.39-.57-28.79-.64-43.19 0-55.12 18.52-105.22 50.1-105.24 16.19 0 24.67 13.51 24.67 30.85 0 37.02-18.47 76.13-45.01 104.66l-.13.28c-.26 47.09-1.73 72.76 5.07 72.76 8.08 0 33.51-82.1 65.91-82.1 33.92 0 6.16 104.83 20.41 104.83 17.36 0 57.04-106.39 83.65-106.39 37.01 0 11.58 89.04 24.29 89.04 13.1 0 32.75-89.04 67.05-89.04 43.57 0 2.71 113.33 25.08 113.33 16.96 0 60.12-117.57 69.77-117.57 7.7 0-3.85 9.25 25.81 51.65 1.27 1.78 2.41 3.6 3.45 5.47l.16.02c30.72-28.32 71.68-52.91 101.63-52.91 5.39 0 8.48.78 8.48 4.63 0 8.86-26.6 16.18-26.6 60.12 0 26.99 18.52 48.95 39.31 48.95 26.6 0 40.48-26.6 40.48-47.01 0-5.19-1.09-11.74-3.12-18.29l-.18-.09c-5.7 1.66-11.6 2.53-17.53 2.57-22.72 0-32.38-16.2-32.38-28.13 0-8.87 8.49-17.34 19.67-17.34 15.42 0 31.36 8.92 40.27 26.28l.08.02c24.08-10.42 46.16-30.54 61.02-30.54 36.63 0 15.81 79.41 24.29 79.41 9.25 0 37.39-82.49 66.68-82.49 23.12 0 21.2 30.83 21.2 44.71 0 31.62-7.31 74.39 4.26 74.39 8.08 0 28.52-33.54 31.2-33.54 2.72 0 3.09.79 3.09 4.26 0 6.53-33.16 56.26-51.27 56.26-26.21 0-23.89-40.08-23.89-52.79 0-10.02 3.06-61.68-4.63-61.68-5.77 0-20.82 33.54-34.71 58.22-14.24 25.06-21.18 53.18-35.43 53.18-18.9 0-15.04-26.2-15.04-51.62 0-33.93 4.22-66.71-6.54-66.71-5 0-18.37 11.75-35.93 20.07l-.02.05c1.77 6.28 2.78 13.32 2.78 21.13 0 21.58-11.16 77.08-63.22 77.08-36.99 0-65.92-28.91-65.92-66.68 0-35.08 19.67-45.88 30.86-58.21-19.18 3.2-50.58 22.75-74.85 45.21l-.08.24c5.88 14.96 6.31 29.89 6.31 35.13 0 25.06-15.81 42.41-32 42.39-10.79 0-21.58-6.92-21.58-20.81 0-10.89 7.7-25.48 19.93-40.7v-.13c-6.18-16.73-14.89-28.93-19.56-28.93-9.62 0-37.76 90.57-73.22 90.57-38.94 0-11.96-110.23-25.06-110.23-12.71 0-50.1 110.23-71.68 110.23-30.46 0-3.09-108.3-16.59-108.3-17.33 0-57.43 108.3-84.41 108.3-38.14 0-9.65-106.76-25.43-106.76-8.48 0-22.38 28.91-35.46 57.82-11.2 23.13-17.73 47.42-29.69 47.42-11.17 0-13.5-4.26-13.5-40.1 0-11.38-.74-36.42-1.39-62.28l-.05-.07c-13.23 8.61-27.26 14.51-41.36 16.69l-.05.08c.29 2.72.48 5.59.48 8.57 0 25.83-10.42 80.17-63.61 80.17-40.1 0-62.06-30.45-62.06-69.38 0-20.8 10.03-34.69 19.66-46.25-21.05 12.66-45.09 32.17-67.53 55.8l-.08.32c2.45 19.19 4.41 36.15 4.41 51.05 0 113.7-49.72 169.22-76.32 169.22-16.59 0-25.46-21.98-25.46-44.33-.02-39.51 19.74-84.76 47.45-125.9zm663.96-42.93h-.1c-6.56 9.47-10.56 18.55-10.56 26.21 0 7.71 1.55 12.34 6.19 12.34 4.23 0 8.08-5.42 8.08-12.74 0-8.71-1.4-17.55-3.61-25.81zm-370.7-93.1c16.32-21.07 28.92-49.18 28.92-83.44 0-16.2-1.16-25.45-9.62-25.45-21.72 0-19.54 80.48-19.3 108.89zm-89.52 44.63.06-.1c-4.13-9.68-10.61-17.35-19.59-17.35-3.88 0-6.18 2.32-6.18 5.39.01 8.57 12.21 11.27 25.71 12.06zm-181.09 73.3-.11-.03c-29.76 39.12-51.9 84.6-51.9 127.82 0 14.29 0 35.48 19.66 35.48 24.29 0 41.27-36.25 41.27-86.74 0-23.46-4.14-50.14-8.92-76.53zm-148.17-11.43.16-.23c-6.72-16.36-18.5-32.07-42.36-32.07-6.55 0-10.03 5.79-10.03 12.73 0 12.72 20.04 20.8 38.56 20.8 3.84.01 8.51-.47 13.67-1.23zm-330.093-65.1c-3.562.78-7.196 1.18-10.842 1.2-10.402 0-16.576-4.24-16.576-11.18 0-3.09 3.476-6.94 7.328-6.94 8.327 0 15.253 7.34 20.155 16.77zm-175.156 51.83c2.179 8.21 3.579 17.02 3.579 25.68 0 7.32-3.852 12.74-8.106 12.74-4.617 0-6.16-4.63-6.16-12.34 0-7.62 3.968-16.66 10.479-26.09h.208zm-370.728-93.35c-.247-28.54-2.387-108.77 19.299-108.77 8.482 0 9.636 9.25 9.636 25.45 0 34.21-12.58 62.29-28.87 83.35zm-89.466 44.75c-13.527-.8-25.77-3.47-25.77-12.06 0-3.07 2.321-5.39 6.173-5.39 9.001 0 15.499 7.7 19.623 17.41zm-183.12 63.26c-5.265 6.61-10.388 13.42-15.291 20.36h-.039c-23.955-23.44-43.176-73.81-43.189-114.97 0-102.13 67.845-131.04 71.32-131.04 5.007 0 3.476 1.15 3.476 8.09 0 10.42-29.298 58.98-29.298 127.21 0 23.95 6.744 56.39 13.06 90.02zm1.959 9.93c4.812 26.42 8.923 53.13 8.923 76.65 0 50.49-16.965 86.74-41.244 86.74-19.662 0-19.662-21.2-19.662-35.46 0-43.26 22.165-88.79 51.944-127.91h.039z" fill="#cf4044" transform="matrix(.206062 0 0 .206062 22.4206 -57.5808)"/></svg>

<?xml version="1.0" encoding="UTF-8" standalone="no"?>
<!DOCTYPE svg PUBLIC "-//W3C//DTD SVG 1.1//EN" "http://www.w3.org/Graphics/SVG/1.1/DTD/svg11.dtd">
<svg width="100%" height="100%" viewBox="0 0 560 400" version="1.1" xmlns="http://www.w3.org/2000/svg" xmlns:xlink="http://www.w3.org/1999/xlink" xml:space="preserve" xmlns:serif="http://www.serif.com/" style="fill-rule:evenodd;clip-rule:evenodd;stroke-linejoin:round;stroke-miterlimit:1.41421;">
    <g transform="matrix(0.206062,0,0,0.206062,22.4206,-57.5808)">
        <path d="M220.24,1190.05C210.603,1201.62 200.201,1215.5 200.201,1236.3C200.201,1275.23 222.561,1305.68 262.638,1305.68C315.84,1305.68 326.241,1251.35 326.241,1225.51C326.241,1222.5 326.073,1219.63 325.762,1216.88C339.873,1214.71 353.958,1208.8 367.174,1200.17L367.239,1200.21C367.887,1226.08 368.627,1251.14 368.627,1262.52C368.251,1298.36 370.935,1302.62 382.115,1302.62C394.06,1302.62 400.623,1278.33 411.803,1255.2C424.915,1226.29 438.793,1197.38 447.262,1197.38C463.072,1197.38 434.539,1304.16 472.696,1304.14C499.673,1304.14 539.763,1195.84 557.116,1195.84C570.605,1195.84 543.226,1304.16 573.303,1304.14C595.273,1304.14 632.665,1193.91 645.388,1193.91C658.501,1193.91 631.511,1304.14 670.446,1304.14C705.529,1304.14 734.05,1213.57 743.686,1213.57C748.317,1213.57 756.993,1225.69 763.18,1242.32L763.141,1242.76C750.975,1257.94 743.31,1272.48 743.31,1283.35C743.31,1297.22 754.114,1304.15 764.892,1304.15C781.091,1304.15 796.888,1286.82 796.888,1261.76C796.888,1256.52 796.447,1241.56 790.559,1226.58L790.585,1226.42C814.813,1203.96 846.147,1184.39 865.109,1181.19C854.318,1193.53 834.656,1204.32 834.656,1239.4C834.656,1277.17 863.566,1306.08 900.569,1306.08C952.603,1306.08 963.783,1250.58 963.783,1229C963.783,1221.14 962.772,1214.06 960.969,1207.75L960.917,1207.82C978.595,1199.5 991.954,1187.76 996.934,1187.76C1007.74,1187.76 1003.5,1220.52 1003.5,1254.46C1003.5,1279.89 999.632,1306.08 1018.53,1306.08C1032.8,1306.08 1039.72,1277.96 1053.99,1252.9C1067.87,1228.22 1082.9,1194.68 1088.68,1194.68C1096.4,1194.68 1093.31,1246.34 1093.31,1256.37C1093.31,1269.08 1090.99,1309.15 1117.2,1309.15C1134.93,1309.15 1168.08,1259.43 1168.08,1252.89C1168.08,1249.42 1168.08,1248.64 1165.38,1248.64C1162.69,1248.64 1142.25,1282.18 1134.15,1282.18C1122.59,1282.18 1129.91,1239.39 1129.91,1207.78C1129.91,1193.91 1131.83,1163.08 1108.71,1163.08C1079.41,1163.08 1050.89,1245.56 1042.02,1245.56C1033.54,1245.55 1054.35,1166.16 1017.74,1166.16C1002.85,1166.16 980.709,1186.38 956.546,1196.77L956.689,1196.82C947.792,1179.37 931.826,1170.4 916.366,1170.4C905.186,1170.4 896.704,1178.89 896.704,1187.75C896.704,1199.69 906.34,1215.88 928.7,1215.88C934.848,1215.88 940.827,1214.88 946.533,1213.27L946.793,1213.37C948.816,1219.92 949.932,1226.5 949.919,1231.69C949.919,1252.11 936.054,1278.7 909.453,1278.7C888.636,1278.7 870.129,1256.74 870.129,1229.75C870.129,1185.8 896.73,1178.49 896.73,1169.61C896.73,1165.76 893.643,1165 887.858,1165C858.132,1165 817.264,1189.57 786.577,1217.9L786.461,1217.87C785.403,1215.99 784.252,1214.17 783.011,1212.4C753.323,1170 764.892,1160.76 757.188,1160.76C747.551,1160.76 704.375,1278.33 687.411,1278.33C665.051,1278.33 705.918,1165 662.366,1165C628.061,1165 608.399,1254.03 595.299,1254.03C582.589,1254.03 608.01,1165 571.007,1165C544.419,1165 504.705,1271.39 487.365,1271.39C472.722,1271.39 500.853,1166.55 466.937,1166.55C434.552,1166.55 409.118,1248.65 401.025,1248.65C394.255,1248.65 395.708,1223.01 395.98,1175.96L396.097,1175.63C422.646,1147.1 441.115,1108.01 441.128,1070.98C441.128,1053.64 432.645,1040.14 416.459,1040.15C384.852,1040.15 366.344,1090.25 366.344,1145.37C366.344,1157.4 366.616,1172.74 366.979,1188.5L366.889,1188.69C352.22,1199.48 338.407,1205.13 330.496,1205.13L323.362,1205.16L323.375,1205.18C316.086,1181.42 296.489,1170.82 282.313,1170.82C271.133,1170.82 262.275,1181.22 262.275,1190.09C262.275,1203.17 273.883,1216.99 310.47,1217.8L310.548,1217.87C311.473,1222.3 311.96,1226.8 312.001,1231.32C312.001,1251.75 296.969,1279.52 270.381,1279.52C247.243,1279.52 229.902,1253.31 229.902,1224.38C229.902,1187.38 254.571,1175.81 254.571,1173.12C254.571,1171.57 254.181,1170.03 253.416,1170.03C228.942,1170.03 189.021,1196.98 151.396,1236.1L151.331,1236.08C147.077,1203.71 142.006,1165.46 142.006,1120.7C142.006,1055.95 153.964,1047.48 153.964,1039C153.964,1035.14 152.81,1033.59 146.247,1033.59C131.604,1033.59 36.782,1076.37 36.782,1171.2C36.782,1244.13 76.911,1276.54 102.759,1296.21C75.043,1337.38 55.29,1382.62 55.29,1422.13C55.29,1444.48 64.161,1466.46 80.724,1466.46C106.936,1466.46 157.038,1410.94 157.051,1297.25C157.051,1282.31 155.118,1265.28 152.641,1246.03L152.654,1245.97C175.105,1222.27 199.177,1202.73 220.24,1190.05ZM2236.65,1201.58L2236.7,1201.44C2231.81,1192 2224.87,1184.67 2216.53,1184.67C2212.68,1184.67 2209.22,1188.52 2209.22,1191.61C2209.22,1198.55 2215.78,1202.79 2225.78,1202.79C2229.44,1202.78 2233.06,1202.35 2236.65,1201.58ZM1402.84,1288.47C1407.67,1281.61 1412.75,1274.89 1417.93,1268.33L1418.2,1267.72C1411.88,1234.1 1405.13,1201.67 1405.13,1177.72C1405.13,1109.5 1434.82,1060.93 1434.82,1050.51C1434.82,1043.57 1435.99,1042.42 1430.97,1042.42C1427.49,1042.42 1359.66,1071.33 1359.66,1173.48C1359.67,1214.66 1378.84,1265.06 1402.84,1288.47ZM1397.49,1296.21C1387.92,1288.93 1379.02,1276.43 1365.44,1267.16C1353.99,1259.31 1323.8,1267.82 1297.61,1272.55L1297.56,1272.61C1295.28,1287.7 1290.09,1302.62 1284.89,1302.62C1281.49,1302.62 1280,1290.66 1275.75,1276.78L1275.49,1276.6C1263.79,1278.7 1253.88,1280.25 1247.87,1280.25C1229.75,1280.25 1188.12,1272.14 1188.12,1244.79C1188.12,1229.38 1205.48,1223.2 1222.05,1223.2C1240.93,1223.2 1271,1236.69 1278.33,1251.35C1280.25,1225.14 1261.35,1210.87 1261.35,1206.63C1261.35,1202.39 1281.79,1194.68 1283.72,1194.68C1291.83,1194.68 1298.77,1231.69 1298.77,1257.91C1298.77,1259.16 1298.71,1260.41 1298.66,1261.74L1298.66,1261.76C1319.41,1257.61 1341.72,1253.23 1356.2,1255.2C1342.32,1235.54 1331.9,1208.56 1331.9,1171.17C1331.9,1076.35 1426.34,1033.56 1440.98,1033.56C1447.54,1033.56 1449.09,1035.1 1449.09,1038.97C1449.09,1047.45 1436.75,1055.93 1436.75,1120.68C1436.75,1165.48 1441.82,1203.76 1446.08,1236.15C1483.71,1197.01 1523.66,1170.02 1548.16,1170.02C1548.93,1170.02 1549.3,1171.56 1549.3,1173.1C1549.3,1175.8 1524.63,1187.37 1524.66,1224.37C1524.63,1253.28 1542.36,1279.49 1565.49,1279.49C1591.7,1279.49 1606.76,1251.73 1606.76,1231.3C1606.76,1227.25 1606.25,1222.57 1605.29,1217.78L1605.27,1217.76C1568.64,1216.95 1557.03,1203.14 1557.03,1190.04C1557.03,1181.17 1565.9,1170.77 1577.45,1170.77C1591.33,1170.77 1610.83,1181.36 1618.13,1205.11L1625.25,1205.07C1633.18,1205.07 1647.02,1199.42 1661.71,1188.6L1661.74,1188.51C1661.38,1174.12 1661.17,1159.72 1661.1,1145.32C1661.1,1090.2 1679.62,1040.1 1711.2,1040.08C1727.39,1040.08 1735.87,1053.59 1735.87,1070.93C1735.87,1107.95 1717.4,1147.06 1690.86,1175.59L1690.73,1175.87C1690.47,1222.96 1689,1248.63 1695.8,1248.63C1703.88,1248.63 1729.31,1166.53 1761.71,1166.53C1795.63,1166.53 1767.87,1271.36 1782.12,1271.36C1799.48,1271.36 1839.16,1164.97 1865.77,1164.97C1902.78,1164.97 1877.35,1254.01 1890.06,1254.01C1903.16,1254.01 1922.81,1164.97 1957.11,1164.97C2000.68,1164.97 1959.82,1278.3 1982.19,1278.3C1999.15,1278.3 2042.31,1160.73 2051.96,1160.73C2059.66,1160.73 2048.11,1169.98 2077.77,1212.38C2079.04,1214.16 2080.18,1215.98 2081.22,1217.85L2081.38,1217.87C2112.1,1189.55 2153.06,1164.96 2183.01,1164.96C2188.4,1164.96 2191.49,1165.74 2191.49,1169.59C2191.49,1178.45 2164.89,1185.77 2164.89,1229.71C2164.89,1256.7 2183.41,1278.66 2204.2,1278.66C2230.8,1278.66 2244.68,1252.06 2244.68,1231.65C2244.68,1226.46 2243.59,1219.91 2241.56,1213.36L2241.38,1213.27C2235.68,1214.93 2229.78,1215.8 2223.85,1215.84C2201.13,1215.84 2191.47,1199.64 2191.47,1187.71C2191.47,1178.84 2199.96,1170.37 2211.14,1170.37C2226.56,1170.37 2242.5,1179.29 2251.41,1196.65L2251.49,1196.67C2275.57,1186.25 2297.65,1166.13 2312.51,1166.13C2349.14,1166.13 2328.32,1245.54 2336.8,1245.54C2346.05,1245.54 2374.19,1163.05 2403.48,1163.05C2426.6,1163.05 2424.68,1193.88 2424.68,1207.76C2424.68,1239.38 2417.37,1282.15 2428.94,1282.15C2437.02,1282.15 2457.46,1248.61 2460.14,1248.61C2462.86,1248.61 2463.23,1249.4 2463.23,1252.87C2463.23,1259.4 2430.07,1309.13 2411.96,1309.13C2385.75,1309.13 2388.07,1269.05 2388.07,1256.34C2388.07,1246.32 2391.13,1194.66 2383.44,1194.66C2377.67,1194.66 2362.62,1228.2 2348.73,1252.88C2334.49,1277.94 2327.55,1306.06 2313.3,1306.06C2294.4,1306.06 2298.26,1279.86 2298.26,1254.44C2298.26,1220.51 2302.48,1187.73 2291.72,1187.73C2286.72,1187.73 2273.35,1199.48 2255.79,1207.8L2255.77,1207.85C2257.54,1214.13 2258.55,1221.17 2258.55,1228.98C2258.55,1250.56 2247.39,1306.06 2195.33,1306.06C2158.34,1306.06 2129.41,1277.15 2129.41,1239.38C2129.41,1204.3 2149.08,1193.5 2160.27,1181.17C2141.09,1184.37 2109.69,1203.92 2085.42,1226.38L2085.34,1226.62C2091.22,1241.58 2091.65,1256.51 2091.65,1261.75C2091.65,1286.81 2075.84,1304.16 2059.65,1304.14C2048.86,1304.14 2038.07,1297.22 2038.07,1283.33C2038.07,1272.44 2045.77,1257.85 2058,1242.63L2058,1242.5C2051.82,1225.77 2043.11,1213.57 2038.44,1213.57C2028.82,1213.57 2000.68,1304.14 1965.22,1304.14C1926.28,1304.14 1953.26,1193.91 1940.16,1193.91C1927.45,1193.91 1890.06,1304.14 1868.48,1304.14C1838.02,1304.14 1865.39,1195.84 1851.89,1195.84C1834.56,1195.84 1794.46,1304.14 1767.48,1304.14C1729.34,1304.14 1757.83,1197.38 1742.05,1197.38C1733.57,1197.38 1719.67,1226.29 1706.59,1255.2C1695.39,1278.33 1688.86,1302.62 1676.9,1302.62C1665.73,1302.62 1663.4,1298.36 1663.4,1262.52C1663.4,1251.14 1662.66,1226.1 1662.01,1200.24L1661.96,1200.17C1648.73,1208.78 1634.7,1214.68 1620.6,1216.86L1620.55,1216.94C1620.84,1219.66 1621.03,1222.53 1621.03,1225.51C1621.03,1251.34 1610.61,1305.68 1557.42,1305.68C1517.32,1305.68 1495.36,1275.23 1495.36,1236.3C1495.36,1215.5 1505.39,1201.61 1515.02,1190.05C1493.97,1202.71 1469.93,1222.22 1447.49,1245.85L1447.41,1246.17C1449.86,1265.36 1451.82,1282.32 1451.82,1297.22C1451.82,1410.92 1402.1,1466.44 1375.5,1466.44C1358.91,1466.44 1350.04,1444.46 1350.04,1422.11C1350.02,1382.6 1369.78,1337.35 1397.49,1296.21ZM2061.45,1253.28L2061.35,1253.28C2054.79,1262.75 2050.79,1271.83 2050.79,1279.49C2050.79,1287.2 2052.34,1291.83 2056.98,1291.83C2061.21,1291.83 2065.06,1286.41 2065.06,1279.09C2065.06,1270.38 2063.66,1261.54 2061.45,1253.28ZM1690.75,1160.18C1707.07,1139.11 1719.67,1111 1719.67,1076.74C1719.67,1060.54 1718.51,1051.29 1710.05,1051.29C1688.33,1051.29 1690.51,1131.77 1690.75,1160.18ZM1601.23,1204.81L1601.29,1204.71C1597.16,1195.03 1590.68,1187.36 1581.7,1187.36C1577.82,1187.36 1575.52,1189.68 1575.52,1192.75C1575.53,1201.32 1587.73,1204.02 1601.23,1204.81ZM1420.14,1278.11L1420.03,1278.08C1390.27,1317.2 1368.13,1362.68 1368.13,1405.9C1368.13,1420.19 1368.13,1441.38 1387.79,1441.38C1412.08,1441.38 1429.06,1405.13 1429.06,1354.64C1429.06,1331.18 1424.92,1304.5 1420.14,1278.11ZM1271.97,1266.68L1272.13,1266.45C1265.41,1250.09 1253.63,1234.38 1229.77,1234.38C1223.22,1234.38 1219.74,1240.17 1219.74,1247.11C1219.74,1259.83 1239.78,1267.91 1258.3,1267.91C1262.14,1267.92 1266.81,1267.44 1271.97,1266.68ZM941.877,1201.58C938.315,1202.36 934.681,1202.76 931.035,1202.78C920.633,1202.78 914.459,1198.54 914.459,1191.6C914.459,1188.51 917.935,1184.66 921.787,1184.66C930.114,1184.66 937.04,1192 941.942,1201.43L941.877,1201.58ZM766.721,1253.41C768.9,1261.62 770.3,1270.43 770.3,1279.09C770.3,1286.41 766.448,1291.83 762.194,1291.83C757.577,1291.83 756.034,1287.2 756.034,1279.49C756.034,1271.87 760.002,1262.83 766.513,1253.4L766.721,1253.4L766.721,1253.41ZM395.993,1160.06C395.746,1131.52 393.606,1051.29 415.292,1051.29C423.774,1051.29 424.928,1060.54 424.928,1076.74C424.928,1110.95 412.348,1139.03 396.058,1160.09L395.993,1160.06ZM306.527,1204.81C293,1204.01 280.757,1201.34 280.757,1192.75C280.757,1189.68 283.078,1187.36 286.93,1187.36C295.931,1187.36 302.429,1195.06 306.553,1204.77L306.527,1204.81ZM123.407,1268.07C118.142,1274.68 113.019,1281.49 108.116,1288.43L108.077,1288.43C84.122,1264.99 64.901,1214.62 64.888,1173.46C64.888,1071.33 132.733,1042.42 136.208,1042.42C141.215,1042.42 139.684,1043.57 139.684,1050.51C139.684,1060.93 110.386,1109.49 110.386,1177.72C110.386,1201.67 117.13,1234.11 123.446,1267.74L123.407,1268.07ZM125.366,1278C130.178,1304.42 134.289,1331.13 134.289,1354.65C134.289,1405.14 117.324,1441.39 93.045,1441.39C73.383,1441.39 73.383,1420.19 73.383,1405.93C73.383,1362.67 95.548,1317.14 125.327,1278.02L125.366,1278.02L125.366,1278Z" style="fill:rgb(207,64,68);"/>
    </g>
</svg>
